icons/desktop/20/ask-20.svg

<svg width="20" height="20" viewBox="0 0 20 20" fill="none" xmlns="http://www.w3.org/2000/svg">
<g clip-path="url(#clip0_13876_782)">
<path d="M9.69367 7.54688C9.98067 6.81802 11.0198 6.81816 11.307 7.54688L11.8929 9.03516L11.9652 9.10645L13.4515 9.69238C13.7862 9.82347 14.0013 10.1402 14.0013 10.499C14.0013 10.8579 13.7862 11.1736 13.4525 11.3057L11.8929 11.9629L11.307 13.4512C11.176 13.7851 10.8592 13.9999 10.5003 14C10.1413 14 9.8237 13.7842 9.6927 13.4502L9.03645 11.8926L7.55012 11.3057C7.21521 11.1746 7.00031 10.858 7.00031 10.499C7.00035 10.1401 7.21522 9.82439 7.54914 9.69238L9.10774 9.03516L9.69367 7.54688Z" fill="black"/>
<path fill-rule="evenodd" clip-rule="evenodd" d="M10.6224 1.24707C15.7943 1.24721 20.0003 5.45314 20.0003 10.623C20.0003 15.793 15.7933 19.9989 10.6224 19.999C9.07547 19.999 7.55455 19.6147 6.1966 18.8857L3.75227 19.8164C3.42727 19.9404 3.09108 20 2.76008 20C1.99214 20 1.24826 19.677 0.710275 19.0781C-0.0597253 18.2191 -0.218046 17.0006 0.306954 15.9736L1.64973 13.3486C1.37983 12.4668 1.24543 11.5519 1.24543 10.623C1.24444 5.45306 5.45039 1.24707 10.6224 1.24707ZM10.6224 2.99707C6.41639 2.99707 2.99447 6.41806 2.99445 10.623C2.99445 11.482 3.13829 12.3269 3.42024 13.1338C3.49924 13.3598 3.48236 13.6083 3.37336 13.8223L1.86555 16.7725C1.57169 17.3474 1.90403 17.7891 2.01203 17.9111C2.12103 18.0331 2.52422 18.4126 3.12922 18.1816L5.95637 17.1064C6.20631 17.0125 6.48616 17.0359 6.71711 17.1729C7.89611 17.8789 9.24641 18.251 10.6214 18.251C14.8273 18.2508 18.2493 14.8299 18.2493 10.625C18.2493 6.42012 14.8273 2.99917 10.6214 2.99902L10.6224 2.99707Z" fill="black"/>
</g>
<defs>
<clipPath id="clip0_13876_782">
<rect width="20" height="20" fill="white"/>
</clipPath>
</defs>
</svg>

<!-- This Source Code Form is subject to the terms of the Mozilla Public
   - License, v. 2.0. If a copy of the MPL was not distributed with this
   - file, You can obtain one at http://mozilla.org/MPL/2.0/. -->
<svg xmlns="http://www.w3.org/2000/svg" width="20" height="20" fill="context-fill" fill-opacity="context-fill-opacity" viewBox="0 0 20 20">
    <g clip-path="url(#clip0_13876_782)">
        <path d="M9.694 7.547c.287-.729 1.326-.729 1.613 0l.586 1.488.072.071 1.486.586a.86.86 0 0 1 .55.807.86.86 0 0 1-.548.807l-1.56.657-.586 1.488A.86.86 0 0 1 10.5 14a.86.86 0 0 1-.807-.55l-.657-1.557-1.486-.587a.86.86 0 0 1-.55-.807c0-.359.215-.675.55-.807l1.558-.657z" />
        <path fill-rule="evenodd" d="M10.622 1.247c5.172 0 9.378 4.206 9.378 9.376s-4.207 9.376-9.378 9.376a9.36 9.36 0 0 1-4.425-1.113l-2.445.93a2.749 2.749 0 0 1-3.042-.738 2.75 2.75 0 0 1-.403-3.104l1.343-2.625a9.3 9.3 0 0 1-.405-2.726c0-5.17 4.205-9.376 9.377-9.376m0 1.75c-4.206 0-7.628 3.421-7.628 7.626 0 .859.144 1.704.426 2.51a.88.88 0 0 1-.047.69l-1.507 2.95c-.294.574.038 1.016.146 1.138a.99.99 0 0 0 1.117.27l2.827-1.075c.25-.094.53-.07.761.067a7.6 7.6 0 0 0 3.904 1.078c4.206 0 7.628-3.421 7.628-7.626s-3.422-7.626-7.628-7.626z" clip-rule="evenodd" />
    </g>
</svg>
